X:1
T:In manus tuas Domine
T:William Byrd (c.1540-1623)
T:In manus tuas Domine
T:© Choral Public Domain Library 2010
T:© Choral Public Domain Library 2010
T:© Choral Public Domain Library 2010
T:© Choral Public Domain Library 2010
T:© Choral Public Domain Library 2010
C:William Byrd (c.1540-1623)
Z:© Choral Public Domain Library 2010
%%score [ 1 2 3 4 ]
L:1/8
M:4/4
K:C
V:1 treble nm="Alto" snm="A."
V:2 treble nm="Alto" snm="A."
V:3 treble-8 transpose=-12 nm="Tenor" snm="T."
V:4 bass nm="Bass" snm="B."
V:1
 [B,d]2 |[M:4/2] G8 B6 A2 | B2 c2 d8 D4 | G6 F2 E2 D2 E4 | D4 D4 G6 E2 | ^F2 G2 A8 G4- | %6
w: |In ma- nus|tu- as Do- mi-|ne, Do- * mi- *|ne com- men- do|spi- ri- tum me-|
 G4 ^F4 G2 G4 =F2 | E2 D2 E8 C4 | B,8 z8 | z8 G8 | B6 A2 B2 c2 d4- | d4 ^c4 d6 =c2 | B2 A2 B4 A8 | %13
w: * * um, spi- ri-|tum me- * *|um,|in|ma- nus tu- as Do-|* mi- ne, Do-|* mi- * ne|
 z16 | z4 G8 B4- | B2 A2 B2 c2 d6 c2 | B4 A8 B4- | B2 c2 d2 D2 E2 ^F2 G4- | G4 ^F4 G8- | G8 z8 | %20
w: |com- men-|* do spi- ri- tum me-|* um, spi-|* ri- tum me- * * *|* * um,|_|
 z4 A6 B2 A2 G2 | A8 B4 ^c4 | d8 z8 | z8 z4 A4- | A2 G2 A2 B2 A8 | B6 ^c2 d8 | z8 z4 D4- | %27
w: re- de- mi- sti|me Do- mi-|ne,|re-|* de- mi- sti me|Do- mi- ne,|De-|
 D2 CD E6 DE F4 | E8 ^F6 EF | ^G4 A2 A4 G^F G4 | A8 A8 | D4 G2 F2 E4 F4 | E8 A6 GA | %33
w: * us _ ve- ri- * ta-|tis, De- us _|ve- ri- ta- * * *|tis, De-|us ve- ri- ta- *|tis, De- us _|
 B6 AB ^c4 d4- | d2 ^cB c4 d8 | B6 c2 d4 c2 B2 | A4 G4 A8 | D6 E2 ^F4 G4 | A4 B4 A4 B2 c2 | d8 D8 | %40
w: ve- ri- * ta- *|* * * * tis.|Ma- ter De- * *|* * i,|o- * ra pro|no- * bis, pro _|no- bis,|
 G4 F2 E2 D4 E4 | ^F4 G4 F6 G2 | A4 B4 c4 B4 | A8 d4 c2 B2 | A4 B4 A4 G4 | A4 E4 ^F6 G2 | %46
w: san- cta Ma- ri- a|ma- ter De- *|i, De- * *|i, san- cta Ma-|ri- a ma- ter|De- i, ma- ter|
 A4 G2 F2 E2 E4 ^F2 | G4 F2 E2 D8 | E4 D4 z4 d4 | B6 c2 d4 B4- | B4 A2 G2 ^F4 G4- | G4 ^F4 G4 d4- | %52
w: De- * * i, ma- ter|De- * * i,|De- i, o-|ra pro no- *||* * bis, o-|
 d4 c2 B2 A4 B4- | B4 A2 G2 ^F4 G4- | G4 ^F4 G4 D4 | G8 ^F4 G4- | G4 A4 ^F6 G2 | A4 B6 AG ^FG A2- | %58
w: * ra pro no- *||* * bis, pro|no- * bis,|_ o- ra pro|no- * * * * * *|
 A2 G2 G8 ^F4 | !fermata!G16 |] %60
w: |bis.|
V:2
 [A,e]2 |[M:4/2] z16 | G8 B6 A2 | B2 c2 d8 ^c4 | d6 c2 B2 A2 B4 | A4 D4 d6 B2 | c4 A4 B2 c4 B2 | %7
w: ||In ma- nus|tu- as Do- mi-|ne, Do- * mi- *|ne, in ma- nus|tu- as Do- * mi-|
 c4 C4 G6 F2 | E2 D2 E4 D8 | D8 z8 | z8 D8 | G6 E2 ^F2 G2 A4- | A4 G8 ^F4 | z8 A8 | %14
w: ne com- men- do|spi- ri- tum me-|um,|com-|men- do spi- ri- tum|_ me- um,|com-|
 B6 A2 B2 c2 d4- | d2 c2 B2 A2 G2 ^F2 G4- | G4 ^F2 E2 F4 G4- | G4 D6 D2 ^C4 | D4 A,4 z4 D4- | %19
w: men- do spi- ri- tum|_ me- * * * * *|* * * * um,|_ spi- ri- tum|me- um, re-|
 D2 E2 D2 C2 D8 | E6 E2 ^F2 F4 G2 | ^F2 E2 F4 G4 E4 | D4 B6 A2 B2 c2 | B8 c6 c2 | d8 d8- | %25
w: * de- mi- sti me|Do- mi- ne, re- de-|mi- sti me Do- mi-|ne, re- de- mi- sti|me Do- mi-|ne De-|
 d4 G4 B4 A2 G2 | ^F2 E2 F2 G2 F8 | G8 A8 | z4 A6 GA B4- | B2 AB c4 B6 AB | ^c4 d6 cB c4 | %31
w: * us ve- ri- *|ta- * * * *|* tis,|De- us _ ve-|* ri- * * ta- * *||
 d8 z4 D2 D2 | G4 E4 F8 | D4 G2 F2 E4 A4 | A6 G2 ^F8 | G4 F2 E2 D4 E4 | ^F4 G4 F8 | G8 z8 | %38
w: tis, De- us|ve- ri- ta-|tis, De- us ve- ri-|ta- * tis.|San- cta Ma- ri- a|ma- ter De-|i,|
 D6 E2 ^F4 G4 | A4 B4 A8 | B6 c2 d4 c2 B2 | A4 G4 A8 | ^F4 G4 E2 F2 G4 | ^F2 D4 E2 F4 G4 | %44
w: o- * ra pro|no- * bis,|ma- ter De- * *|* * i,|ma- ter De- * *|i, o- * ra pro|
 A4 G2 F2 E4 D4 | E8 A6 B2 | c4 B4 A8 | B4 A2 G2 ^F4 G4 | A2 G2 G8 ^F4 | G4 d4 B6 c2 | %50
w: no- * * * *|bis, ma- ter|De- * i,|san- cta Ma- ri- a|ma- ter De- *|i, o- ra pro|
 d4 c2 B2 A4 G4 | A8 z4 G4 | D6 E2 ^F8 | G8 z8 | d8 B8- | B4 c4 d8 | e8 d8- | d8 z4 d4 | %58
w: no- * * * *|bis, o-|ra pro no-|bis,|o- ra|_ pro no-|* bis,|_ o-|
 A4 B2 d4 cB A4 | !fermata!B16 |] %60
w: ra pro no- * * *|bis.|
V:3
 [Dg]2 |[M:4/2] z16 | z16 | z16 | z8 z4 G4 | d6 c2 B2 A2 B4 | A8 G8- | G8 z8 | G8 B6 A2 | %9
w: ||||com-|men- do spi- ri- tum|me- um,|_|in ma- nus|
 B2 c2 d8 ^c4 | d4 D4 G6 F2 | E2 D2 E4 D8 | D8 D4 A4- | A2 A2 G8 ^F4 | G8 G8- | G4 D4 D8 | %16
w: tu- as Do- mi-|ne com- men- do|spi- ri- tum me-|um, com- men-|* do spi- ri-|tum me-|* * um,|
 z4 A4 d6 c2 | B2 A2 B4 G8 | A8 z4 B4- | B2 c2 B2 A2 B4 G4 | c4 A4 d8- | d8 G4 A4 | B8 d6 c2 | %23
w: com- men- do|spi- ri- tum me-|um, re-|* de- mi- sti me Do-|* mi- ne,|_ Do- mi-|ne, re- de-|
 d2 e2 d4 e4 e4 | ^f6 g2 f2 e2 f4 | g4 e4 d8 | A6 G2 A2 B2 A4 | B6 AB ^c2 A2 d4- | d2 ^cB c4 d8 | %29
w: mi- sti me Do- mi-|ne, Do- * * *|* mi- ne,|re- de- mi- sti me|De- us _ ve- ri- ta-|* * * * tis,|
 z8 z4 e4- | e2 de f4 e4 A4 | ^F4 G4 A6 G=F | G4 A8 d4 | B4 e6 de f4 | e4 A4 A8 | G6 A2 B4 c4 | %36
w: ve-|* ri- * * ta- tis,|ve- ri- ta- * *|* tis, De-|us ve- ri- * *|ta- * tis.|San- * cta Ma-|
 d4 e4 d8 | B6 c2 d4 c2 B2 | A4 G4 A2 D4 E2 | ^F4 G6 FE F4 | G16 | z8 d4 c2 B2 | A4 G4 A4 B2 c2 | %43
w: * ri- a|ma- ter De- * *|* * i, o- ra|pro no- * * *|bis,|san- cta Ma-|ri- a ma- ter _|
 d16 | d4 B4 ^c4 d4- | d4 ^c4 d4 =c2 B2 | A4 B4 c4 d4 | G8 A2 A4 B2 | c4 B4 A8 | z8 z4 d4 | %50
w: De-|i, ma- ter De-|* i, san- cta Ma-|ri- a ma- ter|De- i, ma- ter|De- * i,|o-|
 B4 c4 d4 e4 | d8 G8- | G8 z4 d4 | B6 c2 d4 c2 B2 | A8 G8 | G8 A4 B4 | c8 z4 A4 | ^F8 G2 B4 AG | %58
w: ra pro no- *|* bis,|_ o-|ra pro no- * *|* bis,|pro no- *|bis, o-|ra pro no- * *|
 ^F4 G4 A8 | !fermata!G16 |] %60
w: |bis.|
V:4
 [G,,B,]2 |[M:4/2] z16 | z16 | z16 | z16 | z16 | z16 | C,8 E,6 D,2 | E,2 F,2 G,8 D,4 | %9
w: |||||||In ma- nus|tu- as Do- mi-|
 G,6 F,2 E,2 D,2 E,4 | D,8 z8 | z16 | z4 G,,4 D,6 C,2 | B,,2 A,,2 B,,4 A,,8 | G,,8 z8 | %15
w: ne, Do- * mi- *|ne,||com- men- do|spi- ri- tum me-|um,|
 G,,8 B,,6 A,,2 | B,,2 C,2 D,8 G,,4 | G,6 F,2 E,2 D,2 E,4 | D,8 G,,8- | G,,16 | z16 | z16 | %22
w: com- men- do|spi- ri- tum me-||* um,|_|||
 z4 G,6 ^F,2 G,2 A,2 | G,4 G,,4 C,4 A,,4 | D,16 | z8 z4 D,4- | D,2 ^C,2 D,2 E,2 D,4 D,4 | %27
w: re- de- mi- sti|me Do- * mi-|ne,|re-|* de- mi- sti me Do-|
 G,4 E,4 A,8 | z4 A,,4 D,4 B,,4 | E,16 | A,,12 A,,4 | B,,6 A,,B,, ^C,4 D,4- | D,2 ^C,B,, C,4 D,8 | %33
w: * mi- ne,|Do- * mi-|ne|De- us|ve- ri- * ta- *|* * * * tis,|
 G,4 E,4 A,8- | A,8 D,8 | z16 | z16 | G,4 F,2 E,2 D,4 E,4 | ^F,4 G,4 D,8- | D,8 D,8 | %40
w: ve- ri- ta-|* tis.|||San- cta Ma- ri- a|ma- ter De-|* i,|
 G,,6 A,,2 B,,4 C,4 | D,4 E,4 D,8 | z16 | z8 D,6 E,2 | ^F,4 G,4 A,4 B,4 | A,8 D,8 | z16 | %47
w: o- * ra pro|no- * bis,||o- *|ra pro no- *|* bis,||
 z8 D,4 C,2 B,,2 | A,,4 B,,4 C,4 D,4 | G,8 G,,8 | z16 | D,8 B,,8- | B,,4 C,4 D,8 | E,8 D,8- | %54
w: san- cta Ma-|ri- a ma- ter|De- i,||o- ra|_ pro no-|* bis,|
 D,8 z4 G,4- | G,4 F,2 E,2 D,4 G,2 F,2 | E,2 D,2 C,4 D,8 | D,8 B,,6 C,2 | D,16 | !fermata!G,,16 |] %60
w: _ o-|* ra pro no- * *|* * * bis,|o- ra pro|no-|bis.|

